X: 25
I: linebreak $
T: Rose e Viole
C: attrib. Antonio Casteliono, 1536
P: AABB
K: C major
M: 3/4
L: 1/8
P: A
de | "F"f4f2 | f4e2 | "Dm"d4d2 | d2"C"c2c2 | "G"B4B2 | "Am"c2A2c2 | 
"Em"B6- | B4de | "F"f4f2 | f4e2 | "Dm"d4d2 | d2"C"c2c2 | 
"G"B4c2 | "Am"BAc2B2 | "C"c4c2 | c4de | "F"f4f2 | f4e2 | 
"Dm"d4d2 | d2"C"c2c2 | "G"B4B2 | "Am"c2e2c2 | "Em"B6- | B4de | 
"F"f4f2 | f4e2 | "Dm"d4d2 | d2"C"c2c2 | "G"B4c2 | "Am"BAc2B2 | 
"C"c4c2 | c4 :: 
P: B
de | "F"f4f2 | f4e2 | "Dm"d4d2 | d2"C"c2c2 | 
"G"B4B2 | "Am"c2A2c2 | "Em"B6- | B4de | "F"f4f2 | f4e2 | 
"Dm"d4d2 | d2"C"c2c2 | "G"B4c2 | "Am"BAc2B2 | "C"c4c2 | c6 | 
"F"AGABcA | "Dm"d6 | "G"GABcBA | "Em"e6 | "Am"A2c2d2 | "G"d4B2 | 
"Am"A4B2 | "C"e3fe2 | "F"c6 | "Dm"d3ed2 | "G"B2c2d2 | "Em"e6 | 
"Am"ABcABc | "Dm"d4c2 | "C"c3cB2 | "C"c4 :| 

